public/svgs/insight/product.svg

<svg width="400" height="160" viewBox="0 0 400 160" fill="none" xmlns="http://www.w3.org/2000/svg">
    <mask id="path-1-inside-1_910_2327" fill="white">
        <path fill-rule="evenodd" clip-rule="evenodd" d="M400 0H34L0 34V160H400V0Z"/>
    </mask>
    <path d="M34 0V-1H33.5858L33.2929 -0.707107L34 0ZM400 0H401V-1H400V0ZM0 34L-0.707107 33.2929L-1 33.5858V34H0ZM0 160H-1V161H0V160ZM400 160V161H401V160H400ZM34 1H400V-1H34V1ZM0.707107 34.7071L34.7071 0.707107L33.2929 -0.707107L-0.707107 33.2929L0.707107 34.7071ZM1 160V34H-1V160H1ZM400 159H0V161H400V159ZM399 0V160H401V0H399Z"
          fill="#222222" mask="url(#path-1-inside-1_910_2327)"/>
    <path d="M31.56 127.36C31.56 128.107 31.38 128.807 31.02 129.46C30.6733 130.113 30.12 130.64 29.36 131.04C28.6133 131.44 27.6667 131.64 26.52 131.64H24.18V137H21.38V123.04H26.52C27.6 123.04 28.52 123.227 29.28 123.6C30.04 123.973 30.6067 124.487 30.98 125.14C31.3667 125.793 31.56 126.533 31.56 127.36ZM26.4 129.38C27.1733 129.38 27.7467 129.207 28.12 128.86C28.4933 128.5 28.68 128 28.68 127.36C28.68 126 27.92 125.32 26.4 125.32H24.18V129.38H26.4ZM36.348 127.64C36.708 127.053 37.1746 126.593 37.748 126.26C38.3346 125.927 39.0013 125.76 39.748 125.76V128.7H39.008C38.128 128.7 37.4613 128.907 37.008 129.32C36.568 129.733 36.348 130.453 36.348 131.48V137H33.548V125.92H36.348V127.64ZM46.5539 137.18C45.4872 137.18 44.5272 136.947 43.6739 136.48C42.8206 136 42.1472 135.327 41.6539 134.46C41.1739 133.593 40.9339 132.593 40.9339 131.46C40.9339 130.327 41.1806 129.327 41.6739 128.46C42.1806 127.593 42.8672 126.927 43.7339 126.46C44.6006 125.98 45.5672 125.74 46.6339 125.74C47.7006 125.74 48.6672 125.98 49.5339 126.46C50.4006 126.927 51.0806 127.593 51.5739 128.46C52.0806 129.327 52.3339 130.327 52.3339 131.46C52.3339 132.593 52.0739 133.593 51.5539 134.46C51.0472 135.327 50.3539 136 49.4739 136.48C48.6072 136.947 47.6339 137.18 46.5539 137.18ZM46.5539 134.74C47.0606 134.74 47.5339 134.62 47.9739 134.38C48.4272 134.127 48.7872 133.753 49.0539 133.26C49.3206 132.767 49.4539 132.167 49.4539 131.46C49.4539 130.407 49.1739 129.6 48.6139 129.04C48.0672 128.467 47.3939 128.18 46.5939 128.18C45.7939 128.18 45.1206 128.467 44.5739 129.04C44.0406 129.6 43.7739 130.407 43.7739 131.46C43.7739 132.513 44.0339 133.327 44.5539 133.9C45.0872 134.46 45.7539 134.74 46.5539 134.74ZM53.6678 131.42C53.6678 130.3 53.8878 129.307 54.3278 128.44C54.7811 127.573 55.3945 126.907 56.1678 126.44C56.9411 125.973 57.8011 125.74 58.7478 125.74C59.4678 125.74 60.1545 125.9 60.8078 126.22C61.4611 126.527 61.9811 126.94 62.3678 127.46V122.2H65.2078V137H62.3678V135.36C62.0211 135.907 61.5345 136.347 60.9078 136.68C60.2811 137.013 59.5545 137.18 58.7278 137.18C57.7945 137.18 56.9411 136.94 56.1678 136.46C55.3945 135.98 54.7811 135.307 54.3278 134.44C53.8878 133.56 53.6678 132.553 53.6678 131.42ZM62.3878 131.46C62.3878 130.78 62.2545 130.2 61.9878 129.72C61.7211 129.227 61.3611 128.853 60.9078 128.6C60.4545 128.333 59.9678 128.2 59.4478 128.2C58.9278 128.2 58.4478 128.327 58.0078 128.58C57.5678 128.833 57.2078 129.207 56.9278 129.7C56.6611 130.18 56.5278 130.753 56.5278 131.42C56.5278 132.087 56.6611 132.673 56.9278 133.18C57.2078 133.673 57.5678 134.053 58.0078 134.32C58.4611 134.587 58.9411 134.72 59.4478 134.72C59.9678 134.72 60.4545 134.593 60.9078 134.34C61.3611 134.073 61.7211 133.7 61.9878 133.22C62.2545 132.727 62.3878 132.14 62.3878 131.46ZM78.4025 125.92V137H75.5825V135.6C75.2225 136.08 74.7492 136.46 74.1625 136.74C73.5892 137.007 72.9625 137.14 72.2825 137.14C71.4158 137.14 70.6492 136.96 69.9825 136.6C69.3158 136.227 68.7892 135.687 68.4025 134.98C68.0292 134.26 67.8425 133.407 67.8425 132.42V125.92H70.6425V132.02C70.6425 132.9 70.8625 133.58 71.3025 134.06C71.7425 134.527 72.3425 134.76 73.1025 134.76C73.8758 134.76 74.4825 134.527 74.9225 134.06C75.3625 133.58 75.5825 132.9 75.5825 132.02V125.92H78.4025ZM80.4452 131.46C80.4452 130.313 80.6785 129.313 81.1452 128.46C81.6118 127.593 82.2585 126.927 83.0852 126.46C83.9118 125.98 84.8585 125.74 85.9252 125.74C87.2985 125.74 88.4318 126.087 89.3252 126.78C90.2318 127.46 90.8385 128.42 91.1452 129.66H88.1252C87.9652 129.18 87.6918 128.807 87.3052 128.54C86.9318 128.26 86.4652 128.12 85.9052 128.12C85.1052 128.12 84.4718 128.413 84.0052 129C83.5385 129.573 83.3052 130.393 83.3052 131.46C83.3052 132.513 83.5385 133.333 84.0052 133.92C84.4718 134.493 85.1052 134.78 85.9052 134.78C87.0385 134.78 87.7785 134.273 88.1252 133.26H91.1452C90.8385 134.46 90.2318 135.413 89.3252 136.12C88.4185 136.827 87.2852 137.18 85.9252 137.18C84.8585 137.18 83.9118 136.947 83.0852 136.48C82.2585 136 81.6118 135.333 81.1452 134.48C80.6785 133.613 80.4452 132.607 80.4452 131.46ZM96.4564 128.22V133.58C96.4564 133.953 96.5431 134.227 96.7164 134.4C96.9031 134.56 97.2097 134.64 97.6364 134.64H98.9364V137H97.1764C94.8164 137 93.6364 135.853 93.6364 133.56V128.22H92.3164V125.92H93.6364V123.18H96.4564V125.92H98.9364V128.22H96.4564ZM112.916 137L109.836 131.56H108.516V137H105.716V123.04H110.956C112.036 123.04 112.956 123.233 113.716 123.62C114.476 123.993 115.043 124.507 115.416 125.16C115.803 125.8 115.996 126.52 115.996 127.32C115.996 128.24 115.729 129.073 115.196 129.82C114.663 130.553 113.869 131.06 112.816 131.34L116.156 137H112.916ZM108.516 129.46H110.856C111.616 129.46 112.183 129.28 112.556 128.92C112.929 128.547 113.116 128.033 113.116 127.38C113.116 126.74 112.929 126.247 112.556 125.9C112.183 125.54 111.616 125.36 110.856 125.36H108.516V129.46ZM128.828 131.22C128.828 131.62 128.802 131.98 128.748 132.3H120.648C120.715 133.1 120.995 133.727 121.488 134.18C121.982 134.633 122.588 134.86 123.308 134.86C124.348 134.86 125.088 134.413 125.528 133.52H128.548C128.228 134.587 127.615 135.467 126.708 136.16C125.802 136.84 124.688 137.18 123.368 137.18C122.302 137.18 121.342 136.947 120.488 136.48C119.648 136 118.988 135.327 118.508 134.46C118.042 133.593 117.808 132.593 117.808 131.46C117.808 130.313 118.042 129.307 118.508 128.44C118.975 127.573 119.628 126.907 120.468 126.44C121.308 125.973 122.275 125.74 123.368 125.74C124.422 125.74 125.362 125.967 126.188 126.42C127.028 126.873 127.675 127.52 128.128 128.36C128.595 129.187 128.828 130.14 128.828 131.22ZM125.928 130.42C125.915 129.7 125.655 129.127 125.148 128.7C124.642 128.26 124.022 128.04 123.288 128.04C122.595 128.04 122.008 128.253 121.528 128.68C121.062 129.093 120.775 129.673 120.668 130.42H125.928ZM135.492 134.42L138.292 125.92H141.272L137.172 137H133.772L129.692 125.92H132.692L135.492 134.42ZM144.265 124.6C143.772 124.6 143.358 124.447 143.025 124.14C142.705 123.82 142.545 123.427 142.545 122.96C142.545 122.493 142.705 122.107 143.025 121.8C143.358 121.48 143.772 121.32 144.265 121.32C144.758 121.32 145.165 121.48 145.485 121.8C145.818 122.107 145.985 122.493 145.985 122.96C145.985 123.427 145.818 123.82 145.485 124.14C145.165 124.447 144.758 124.6 144.265 124.6ZM145.645 125.92V137H142.845V125.92H145.645ZM158.711 131.22C158.711 131.62 158.685 131.98 158.631 132.3H150.531C150.598 133.1 150.878 133.727 151.371 134.18C151.865 134.633 152.471 134.86 153.191 134.86C154.231 134.86 154.971 134.413 155.411 133.52H158.431C158.111 134.587 157.498 135.467 156.591 136.16C155.685 136.84 154.571 137.18 153.251 137.18C152.185 137.18 151.225 136.947 150.371 136.48C149.531 136 148.871 135.327 148.391 134.46C147.925 133.593 147.691 132.593 147.691 131.46C147.691 130.313 147.925 129.307 148.391 128.44C148.858 127.573 149.511 126.907 150.351 126.44C151.191 125.973 152.158 125.74 153.251 125.74C154.305 125.74 155.245 125.967 156.071 126.42C156.911 126.873 157.558 127.52 158.011 128.36C158.478 129.187 158.711 130.14 158.711 131.22ZM155.811 130.42C155.798 129.7 155.538 129.127 155.031 128.7C154.525 128.26 153.905 128.04 153.171 128.04C152.478 128.04 151.891 128.253 151.411 128.68C150.945 129.093 150.658 129.673 150.551 130.42H155.811ZM176.115 125.92L172.875 137H169.855L167.835 129.26L165.815 137H162.775L159.515 125.92H162.355L164.315 134.36L166.435 125.92H169.395L171.475 134.34L173.435 125.92H176.115Z"
          fill="#222222"/>
    <circle cx="297.654" cy="95.7066" r="17.6538" stroke="#222222" stroke-dasharray="2 2"/>
    <path d="M315 93H324" stroke="#222222" stroke-dasharray="2 2"/>
    <path d="M315 97H323.5" stroke="#222222" stroke-dasharray="2 2"/>
    <path d="M329.5 69.5L332 83.5" stroke="#222222" stroke-dasharray="2 2"/>
    <path d="M333.5 68.5L336 82.5" stroke="#222222" stroke-dasharray="2 2"/>
    <circle cx="327.692" cy="50.6923" r="18.6923" stroke="#222222" stroke-width="2"/>
    <path d="M343.5 60.5L356.5 70.5" stroke="#222222" stroke-dasharray="2 2"/>
    <path d="M358.5 66.5L345.5 56.5" stroke="#222222" stroke-dasharray="2 2"/>
    <path d="M345.5 44.5L361.5 37" stroke="#222222" stroke-dasharray="2 2"/>
    <path d="M363 40.5L346.5 48.5" stroke="#222222" stroke-dasharray="2 2"/>
    <circle cx="371.038" cy="34.0385" r="10.0385" stroke="#222222" stroke-dasharray="2 2"/>
    <path d="M373.5 44L370.5 62" stroke="#222222" stroke-dasharray="2 2"/>
    <path d="M366.5 61.5L369 44" stroke="#222222" stroke-dasharray="2 2"/>
    <circle cx="367.577" cy="73.2063" r="11.4231" stroke="#222222" stroke-width="2"/>
    <path d="M356.5 76.5L345 85" stroke="#222222" stroke-dasharray="2 2"/>
    <path d="M347.5 87.5L358.5 79.5" stroke="#222222" stroke-dasharray="2 2"/>
    <path d="M339.5 108.5V118.5" stroke="#222222" stroke-dasharray="2 2"/>
    <path d="M335 109V118.5" stroke="#222222" stroke-dasharray="2 2"/>
    <path d="M373.5 83L377.5 99" stroke="#222222" stroke-dasharray="2 2"/>
    <path d="M369.5 84.5L373.5 100.5" stroke="#222222" stroke-dasharray="2 2"/>
    <circle cx="377.616" cy="106.615" r="7.61538" transform="rotate(13.3502 377.616 106.615)" stroke="#222222"/>
    <circle cx="337.346" cy="127.571" r="9.34615" stroke="#222222"/>
    <circle cx="336.77" cy="95.7066" r="13.1538" stroke="#222222" stroke-width="2"/>
    <path d="M348 103L370.5 109" stroke="#222222" stroke-dasharray="2 2"/>
    <path d="M370 105L349.5 99.5" stroke="#222222" stroke-dasharray="2 2"/>
</svg>

<svg xmlns="http://www.w3.org/2000/svg" width="400" height="160" fill="none" viewBox="0 0 400 160"><mask id="a" fill="#fff"><path fill-rule="evenodd" d="M400 0H34L0 34v126h400z" clip-rule="evenodd"/></mask><path fill="#222" d="M34 0v-1h-.414l-.293.293zm366 0h1v-1h-1zM0 34l-.707-.707-.293.293V34zm0 126h-1v1h1zm400 0v1h1v-1zM34 1h366v-2H34zM.707 34.707l34-34-1.414-1.414-34 34zM1 160V34h-2v126zm399-1H0v2h400zM399 0v160h2V0z" mask="url(#a)"/><path fill="#222" d="M31.56 127.36q0 1.12-.54 2.1-.52.98-1.66 1.58-1.12.6-2.84.6h-2.34V137h-2.8v-13.96h5.14q1.62 0 2.76.56t1.7 1.54q.58.98.58 2.22m-5.16 2.02q1.16 0 1.72-.52.56-.54.56-1.5 0-2.04-2.28-2.04h-2.22v4.06zm9.948-1.74a3.96 3.96 0 0 1 1.4-1.38q.88-.5 2-.5v2.94h-.74q-1.32 0-2 .62-.66.62-.66 2.16V137h-2.8v-11.08h2.8zm10.206 9.54q-1.6 0-2.88-.7a5.25 5.25 0 0 1-2.02-2.02q-.72-1.3-.72-3t.74-3a5.2 5.2 0 0 1 2.06-2q1.3-.72 2.9-.72t2.9.72a5.08 5.08 0 0 1 2.04 2q.76 1.3.76 3t-.78 3a5.3 5.3 0 0 1-2.08 2.02q-1.3.7-2.92.7m0-2.44q.76 0 1.42-.36a2.74 2.74 0 0 0 1.08-1.12q.4-.74.4-1.8 0-1.58-.84-2.42a2.68 2.68 0 0 0-2.02-.86q-1.2 0-2.02.86-.8.84-.8 2.42t.78 2.44q.8.84 2 .84m7.114-3.32q0-1.68.66-2.98.68-1.3 1.84-2a4.9 4.9 0 0 1 2.58-.7q1.08 0 2.06.48.98.46 1.56 1.24v-5.26h2.84V137h-2.84v-1.64q-.52.82-1.46 1.32t-2.18.5q-1.4 0-2.56-.72t-1.84-2.02q-.66-1.32-.66-3.02m8.72.04q0-1.02-.4-1.74a2.74 2.74 0 0 0-1.08-1.12q-.68-.4-1.46-.4t-1.44.38-1.08 1.12q-.4.72-.4 1.72t.4 1.76q.42.74 1.08 1.14.68.4 1.44.4.78 0 1.46-.38.68-.4 1.08-1.12.4-.74.4-1.76m16.015-5.54V137h-2.82v-1.4q-.54.72-1.42 1.14-.86.4-1.88.4-1.3 0-2.3-.54a4 4 0 0 1-1.58-1.62q-.56-1.08-.56-2.56v-6.5h2.8v6.1q0 1.32.66 2.04.66.7 1.8.7 1.16 0 1.82-.7.66-.72.66-2.04v-6.1zm2.042 5.54q0-1.72.7-3a4.9 4.9 0 0 1 1.94-2q1.24-.72 2.84-.72 2.06 0 3.4 1.04 1.36 1.02 1.82 2.88h-3.02a2.14 2.14 0 0 0-.82-1.12q-.56-.42-1.4-.42-1.2 0-1.9.88-.7.86-.7 2.46 0 1.58.7 2.46.7.86 1.9.86 1.7 0 2.22-1.52h3.02q-.46 1.8-1.82 2.86t-3.4 1.06q-1.6 0-2.84-.7a5.1 5.1 0 0 1-1.94-2q-.7-1.3-.7-3.02m16.011-3.24v5.36q0 .56.26.82.28.24.92.24h1.3V137h-1.76q-3.54 0-3.54-3.44v-5.34h-1.32v-2.3h1.32v-2.74h2.82v2.74h2.48v2.3zm16.46 8.78-3.08-5.44h-1.32V137h-2.8v-13.96h5.24q1.62 0 2.76.58 1.14.56 1.7 1.54.58.96.58 2.16 0 1.38-.8 2.5-.8 1.1-2.38 1.52l3.34 5.66zm-4.4-7.54h2.34q1.14 0 1.7-.54.56-.56.56-1.54 0-.96-.56-1.48-.56-.54-1.7-.54h-2.34zm20.312 1.76q0 .6-.08 1.08h-8.1q.1 1.2.84 1.88t1.82.68q1.56 0 2.22-1.34h3.02q-.48 1.6-1.84 2.64-1.36 1.02-3.34 1.02-1.599 0-2.88-.7a5.15 5.15 0 0 1-1.98-2.02q-.7-1.3-.7-3 0-1.72.7-3.02a4.9 4.9 0 0 1 1.96-2q1.26-.7 2.9-.7 1.581 0 2.82.68 1.26.68 1.94 1.94.7 1.24.7 2.86m-2.9-.8q-.02-1.08-.78-1.72-.759-.66-1.86-.66-1.04 0-1.76.64-.7.62-.86 1.74zm9.564 4 2.8-8.5h2.98l-4.1 11.08h-3.4l-4.08-11.08h3zm8.773-9.82q-.74 0-1.24-.46-.48-.48-.48-1.18t.48-1.16q.5-.48 1.24-.48t1.22.48q.5.46.5 1.16t-.5 1.18q-.48.46-1.22.46m1.38 1.32V137h-2.8v-11.08zm13.066 5.3q0 .6-.08 1.08h-8.1q.1 1.2.84 1.88t1.82.68q1.56 0 2.22-1.34h3.02q-.48 1.6-1.84 2.64-1.36 1.02-3.34 1.02-1.599 0-2.88-.7a5.15 5.15 0 0 1-1.98-2.02q-.7-1.3-.7-3 0-1.72.7-3.02a4.9 4.9 0 0 1 1.96-2q1.26-.7 2.9-.7 1.581 0 2.82.68 1.26.68 1.94 1.94.7 1.24.7 2.86m-2.9-.8q-.02-1.08-.78-1.72-.759-.66-1.86-.66-1.04 0-1.76.64-.7.62-.86 1.74zm20.304-4.5-3.24 11.08h-3.02l-2.02-7.74-2.02 7.74h-3.04l-3.26-11.08h2.84l1.96 8.44 2.12-8.44h2.96l2.08 8.42 1.96-8.42z"/><circle cx="297.654" cy="95.707" r="17.654" stroke="#222" stroke-dasharray="2 2"/><path stroke="#222" stroke-dasharray="2 2" d="M315 93h9M315 97h8.5M329.5 69.5l2.5 14M333.5 68.5l2.5 14"/><circle cx="327.692" cy="50.692" r="18.692" stroke="#222" stroke-width="2"/><path stroke="#222" stroke-dasharray="2 2" d="m343.5 60.5 13 10M358.5 66.5l-13-10M345.5 44.5l16-7.5M363 40.5l-16.5 8"/><circle cx="371.038" cy="34.038" r="10.039" stroke="#222" stroke-dasharray="2 2"/><path stroke="#222" stroke-dasharray="2 2" d="m373.5 44-3 18M366.5 61.5 369 44"/><circle cx="367.577" cy="73.206" r="11.423" stroke="#222" stroke-width="2"/><path stroke="#222" stroke-dasharray="2 2" d="M356.5 76.5 345 85M347.5 87.5l11-8M339.5 108.5v10M335 109v9.5M373.5 83l4 16M369.5 84.5l4 16"/><circle cx="377.616" cy="106.615" r="7.615" stroke="#222" transform="rotate(13.35 377.616 106.615)"/><circle cx="337.346" cy="127.571" r="9.346" stroke="#222"/><circle cx="336.77" cy="95.707" r="13.154" stroke="#222" stroke-width="2"/><path stroke="#222" stroke-dasharray="2 2" d="m348 103 22.5 6M370 105l-20.5-5.5"/></svg>
